src/earn/components/challenge-detail/icons/failed.svg

<?xml version="1.0" encoding="UTF-8"?>
<svg width="16px" height="16px" viewBox="0 0 16 16" version="1.1" xmlns="http://www.w3.org/2000/svg" xmlns:xlink="http://www.w3.org/1999/xlink">
    <title>Submission Failed</title>
    <g id="Challenge-Details---Desktop" stroke="none" stroke-width="1" fill="none" fill-rule="evenodd">
        <g id="04_1_Review_Status" transform="translate(-588.000000, -799.000000)">
            <g id="icon-failed" transform="translate(588.000000, 799.000000)">
                <g>
                    <g id="ban">
                        <path d="M8,0 C3.6,0 0,3.6 0,8 C0,12.4 3.6,16 8,16 C12.4,16 16,12.4 16,8 C16,3.6 12.4,0 8,0 Z" id="Path" fill="#FFFFFF"></path>
                        <path d="M8,1 C4.15228475,1 1,4.15228475 1,8 C1,11.8477153 4.15228475,15 8,15 C11.8477153,15 15,11.8477153 15,8 C15,4.15228475 11.8477153,1 8,1 Z" id="Shape" stroke="#F52C14" stroke-width="2" fill-rule="nonzero"></path>
                    </g>
                    <g id="e-remove" transform="translate(5.000000, 5.000000)" fill="#F52C14" stroke="#F52C14" stroke-width="0.5">
                        <path d="M5.82454042,0.175459576 C5.59052366,-0.0584865253 5.21118246,-0.0584865253 4.9771657,0.175459576 L3.00375342,2.14887186 L1.03034114,0.175459576 C0.795198318,-0.0516489611 0.421427026,-0.0484009896 0.190266439,0.182759598 C-0.0408941487,0.413920185 -0.0441421202,0.787691477 0.182966417,1.0228343 L2.1563787,2.99624658 L0.182966417,4.96965886 C0.0271809579,5.12012149 -0.0352970548,5.34293395 0.0195458527,5.5524581 C0.0743887601,5.76198225 0.238017754,5.92561124 0.447541901,5.98045415 C0.657066047,6.03529705 0.87987851,5.97281904 1.03034114,5.81703358 L3.00375342,3.8436213 L4.9771657,5.81703358 C5.21230852,6.04414212 5.58607981,6.04089415 5.8172404,5.80973356 C6.04840099,5.57857297 6.05164896,5.20480168 5.82454042,4.96965886 L3.85112814,2.99624658 L5.82454042,1.0228343 C6.05848653,0.788817536 6.05848653,0.409476339 5.82454042,0.175459576 Z" id="Path"></path>
                    </g>
                </g>
            </g>
        </g>
    </g>
</svg>

<svg xmlns="http://www.w3.org/2000/svg" width="16" height="16" viewBox="0 0 16 16">
  <g id="Challenge-Details---Desktop" fill="none" fill-rule="evenodd" stroke="none" stroke-width="1">
    <g id="04_1_Review_Status" transform="translate(-588 -799)">
      <g id="icon-failed" transform="translate(588 799)">
        <g id="ban">
          <path id="Path" fill="#FFF" d="M8 0C3.6 0 0 3.6 0 8s3.6 8 8 8 8-3.6 8-8-3.6-8-8-8Z"/>
          <path id="Shape" fill-rule="nonzero" stroke="#F52C14" stroke-width="2" d="M8 1C4.152 1 1 4.152 1 8s3.152 7 7 7 7-3.152 7-7-3.152-7-7-7Z"/>
        </g>
        <g id="e-remove" fill="#F52C14" stroke="#F52C14" stroke-width=".5" transform="translate(5 5)">
          <path id="Path" d="M5.825.175a.6.6 0 0 0-.848 0L3.004 2.15 1.03.175a.6.6 0 0 0-.847.848l1.973 1.973L.183 4.97a.6.6 0 1 0 .847.847l1.974-1.973 1.973 1.973a.6.6 0 0 0 .848-.847L3.85 2.996l1.974-1.973a.6.6 0 0 0 0-.848Z"/>
        </g>
      </g>
    </g>
  </g>
</svg>
